X:1     %Music
T:Old Farmer Buck
B:Singing Together, Spring 1967, BBC Publications
F:http://www.folkinfo.org/songs
M:4/4     %Meter
L:1/8     %
K:G
G2 GG D2 D2 |E2 EE D2 
w:Old Far-mer Buck he bought him a duck
DD |G2 GG A2 AA |B2 GG G2 z 
w:And he cut off her feet 'cause her walked in the muck.
D |GG GG D2 DD |E2 EE D2 
w: And when her would-n't go For to roost like a crow 
D2 |G2 GG A2 AA |BB G2 G4 |
w:He cut off her head for to make her do so. 
d2 dd B2 B2 |d2 dd B4 |
w:Why did he go and act thick-y way? 
GG GG D2 DD |E2 E2 D4 |
w:'Cause he were a fool and a gurt big fool, 
GG GG A3 A |B2 G2 G4 |]
w:'Cause he were a fool, us all do say. 